X: 9571
T: David Adams
R: reel
M: 4/4
K: Amajor
|E|[AEC]2 cA GABc|dcBA GEGB|(3AAA cA Bcdf|ecdB {d}cAAa|
(3AAA cA GABc|dcBA GEFG|AcEc ABcd|ecdB cA A:|
a|(3aaa Aa fddf|(3bbb Bb geeg|(3aaa Aa fdfa|ecdB {d}cAAa|
(3aaa Aa fddf|(3bbb Bb gefg|agae fdfa|ecdB cA [EC]||

